apps/16/menu-editor.svg

<?xml version="1.0" encoding="UTF-8"?>
<svg id="c" width="16" height="16" version="1.1" xmlns="http://www.w3.org/2000/svg" xmlns:cc="http://creativecommons.org/ns#" xmlns:dc="http://purl.org/dc/elements/1.1/" xmlns:rdf="http://www.w3.org/1999/02/22-rdf-syntax-ns#">
	<metadata id="a">
		<rdf:RDF>
			<cc:Work rdf:about="">
				<dc:format>image/svg+xml</dc:format>
				<dc:type rdf:resource="http://purl.org/dc/dcmitype/StillImage"/>
				<dc:title/>
			</cc:Work>
		</rdf:RDF>
	</metadata>
	<defs>
		<style id="current-color-scheme" type="text/css">.ColorScheme-Text {color:#090d11;}.ColorScheme-Background{color:#ffffff;}</style>
	</defs>
	<path id="b" d="m3 1c-0.554 0-1 0.446-1 1s0.446 1 1 1h6.25 2.2188l0.65625-1.7188c0.03436-0.096773 0.0762-0.19089 0.125-0.28125zm10.75 0c-0.06555 0.024573-0.12851 0.056053-0.1875 0.09375-0.03239 0.01905-0.06371 0.039927-0.09375 0.0625-0.05479 0.026412-0.10716 0.057835-0.15625 0.09375-0.02174 0.019899-0.0426 0.040759-0.0625 0.0625-1.63e-4 0.010416-1.63e-4 0.020834 0 0.03125-0.02119 0.00968-0.04204 0.02011-0.0625 0.03125-1.63e-4 0.010416-1.63e-4 0.020834 0 0.03125-0.01114 0.020461-0.02155 0.041311-0.03125 0.0625-1.63e-4 0.010416-1.63e-4 0.020834 0 0.03125-0.02174 0.019899-0.0426 0.040759-0.0625 0.0625-0.01195 0.03071-0.02235 0.062011-0.03125 0.09375l-0.4375 1.1875 1.8438 0.75 0.21875-0.59375 0.25-0.65625c0.04448-0.11949 0.0658-0.24754 0.0625-0.375 1.63e-4 -0.010416 1.63e-4 -0.020834 0-0.03125 0.0015-0.031227 0.0015-0.062523 0-0.09375-0.01707-0.097706-0.04878-0.19284-0.09375-0.28125-0.02641-0.05479-0.05784-0.10716-0.09375-0.15625-0.04364-0.068986-0.09719-0.13114-0.15625-0.1875-0.01699-0.015229-0.04451-0.017217-0.0625-0.03125-0.0199-0.021741-0.04076-0.042601-0.0625-0.0625-0.0092-0.00359-0.02193 0.00331-0.03125 0-0.02046-0.01114-0.04131-0.021565-0.0625-0.03125-0.03004-0.022573-0.06136-0.04345-0.09375-0.0625-0.06132-0.016334-0.1242-0.02681-0.1875-0.03125-0.03123-0.00147-0.06252-0.00147-0.09375 0-0.07263-0.00799-0.14612-0.00799-0.21875 0-0.02083-6.511e-4 -0.04167-6.511e-4 -0.0625 0-0.01042-1.628e-4 -0.02083-1.628e-4 -0.03125 0zm-1.5 2.7812-0.09375 0.21875-0.1875 0.5-0.21875 0.53125-0.34375 0.96875-0.40625 1-0.28125 0.75-0.46875 1.25-0.40625 1-0.375 1-0.0625 0.1875-0.09375 0.21875 1.8438 0.75 0.0625-0.15625 0.78125-2 0.375-1 0.75-1.9688 0.03125-0.03125 0.375-1 0.5625-1.4688zm-9.25 3.2188c-0.554 0-1 0.446-1 1s0.446 1 1 1h4 2.1562l0.1875-0.5 0.59375-1.5h-2.1875zm10.938 0.65625-0.4375 1.1875c0.29199-0.17423 0.5-0.47765 0.5-0.84375 0-0.12696-0.018686-0.23428-0.0625-0.34375zm-5 4.6875-0.125 0.375-0.125 0.28125-0.125 0.34375c-0.01114 0.02046-0.02157 0.04131-0.03125 0.0625-1.627e-4 0.01042-1.627e-4 0.02083 0 0.03125-0.014548 0.05114-0.02501 0.10345-0.03125 0.15625-1.627e-4 0.01042-1.627e-4 0.02083 0 0.03125-0.00799 0.07262-0.00799 0.14613 0 0.21875-0.00261 0.04161-0.00261 0.08339 0 0.125 0.00968 0.02119 0.02011 0.04204 0.03125 0.0625 0.017886 0.04306 0.038787 0.08486 0.0625 0.125 0.00968 0.02119 0.02011 0.04204 0.03125 0.0625 0.00968 0.02119 0.02011 0.04204 0.03125 0.0625 0.01905 0.03239 0.039927 0.06371 0.0625 0.09375 0.010185 0.01065 0.020605 0.02107 0.03125 0.03125 0.010185 0.01065 0.020605 0.02107 0.03125 0.03125 0.037871 0.04525 0.079755 0.08713 0.125 0.125 0.010416 1.62e-4 0.020834 1.62e-4 0.03125 0 0.010185 0.01065 0.020605 0.02107 0.03125 0.03125 0.020461 0.01114 0.041311 0.02155 0.0625 0.03125 0.010185 0.01065 0.020605 0.02107 0.03125 0.03125 0.020827 6.51e-4 0.041673 6.51e-4 0.0625 0 0.010185 0.01065 0.020605 0.02107 0.03125 0.03125 0.020827 6.51e-4 0.041673 6.51e-4 0.0625 0 0.010185 0.01065 0.020605 0.02107 0.03125 0.03125 0.020827 6.51e-4 0.041673 6.51e-4 0.0625 0 0.010416 1.62e-4 0.020834 1.62e-4 0.03125 0 0.020461 0.01114 0.041311 0.02155 0.0625 0.03125 0.020827 6.51e-4 0.041673 6.51e-4 0.0625 0 0.063303-0.0044 0.12618-0.01492 0.1875-0.03125 0.097706-0.01707 0.19284-0.04878 0.28125-0.09375 0.021189-0.00968 0.042039-0.02011 0.0625-0.03125 0.01042 1.62e-4 0.02083 1.62e-4 0.03125 0 0.01065-0.01018 0.02107-0.0206 0.03125-0.03125 0.01065-0.01018 0.02107-0.0206 0.03125-0.03125 0.02119-0.0097 0.04204-0.02011 0.0625-0.03125 1.63e-4 -0.01042 1.63e-4 -0.02083 0-0.03125 0.01042 1.62e-4 0.02083 1.62e-4 0.03125 0 0.01114-0.02046 0.02155-0.04131 0.03125-0.0625 0.02174-0.0199 0.0426-0.04076 0.0625-0.0625 0.01065-0.01018 0.02107-0.0206 0.03125-0.03125 0.01114-0.02046 0.02155-0.04131 0.03125-0.0625 0.02371-0.04014 0.04462-0.08194 0.0625-0.125 0.01065-0.01018 0.02107-0.0206 0.03125-0.03125 6.51e-4 -0.02083 6.51e-4 -0.04167 0-0.0625l0.34375-0.90625-1.8125-0.78125zm-5.9375 0.65625c-0.554 0-1 0.446-1 1s0.446 1 1 1h2 1.9375 0.78125c-0.26863-0.4365-0.39363-0.96706-0.28125-1.4688 0.029159-0.12872 0.071098-0.25453 0.125-0.375l0.0625-0.15625h-2.125zm8.875 0-0.53125 1.4062c-0.04843 0.21619-0.12995 0.41058-0.25 0.59375h0.03125 0.875 1c0.554 0 1-0.446 1-1s-0.446-1-1-1z" style="fill-opacity:.75;fill:currentColor" class="ColorScheme-Text"/>
	<path id="d" d="m13.906-0.0312c-0.7805 0.038-1.5134 0.5782-1.7812 1.3125l-4.5595 11.873c-0.054 0.1205-0.096 0.2463-0.125 0.375-0.2291 1.0227 0.493 2.1616 1.5156 2.3907 1.0227 0.229 2.1616-0.493 2.3906-1.5157l0.5283-1.4046h3.125v-1h-2.7188l0.75-2h1.9688v-1h-1.5625l0.75-2h0.8125v-1h-0.4063l1.25-3.2812c0.5006-1.2345-0.6065-2.8059-1.9375-2.75zm-0.1562 1.0312c0.01-2e-4 0.021-2e-4 0.031 0 0.021-7e-4 0.042-7e-4 0.062 0 0.073-0.01 0.1462-0.01 0.2188 0h0.094c0.063 0 0.1262 0.015 0.1875 0.031 0.032 0.019 0.064 0.04 0.094 0.062 0.032 0.01 0.063 0.019 0.094 0.031 0.056 0.036 0.1086 0.078 0.1563 0.125 0.022 0.02 0.043 0.041 0.062 0.062 0.023 0.03 0.043 0.061 0.062 0.094 0.036 0.049 0.067 0.1014 0.094 0.1562 0.045 0.088 0.077 0.1835 0.094 0.2813v0.094c2e-4 0.01 2e-4 0.021 0 0.031 0 0.1274-0.018 0.2555-0.062 0.375l-0.25 0.6562-0.2188 0.5938-1.8437-0.75 0.4375-1.1875c0.01-0.032 0.019-0.063 0.031-0.094 0.02-0.022 0.041-0.043 0.062-0.062-1e-4 -0.01-1e-4 -0.021 0-0.031 0.01-0.021 0.02-0.042 0.031-0.062-2e-4 -0.01-2e-4 -0.021 0-0.031 0.021-0.011 0.041-0.022 0.062-0.031-2e-4 -0.01-2e-4 -0.021 0-0.031 0.02-0.022 0.041-0.043 0.062-0.062 0.049-0.036 0.1015-0.067 0.1562-0.094 0.03-0.023 0.061-0.043 0.094-0.062 0.059-0.038 0.1219-0.069 0.1875-0.094zm-12.75 2v1h7.875l0.375-1zm11.25 0.7813 1.8437 0.75-0.5625 1.4687-0.375 1-0.7812 2-0.375 1-0.7813 2 0.128-0.3141-0.125 0.3125-0.062 0.1562-1.8437-0.75 0.1532-0.4046 0.375-1 0.4063-1 0.4687-1.25 0.2813-0.75 0.4062-1 0.5625-1.5 0.1875-0.5zm-11.25 2.2187v1h6.75l0.375-1zm0 3v1h5.625l0.375-1zm0 3v1h4.5l0.375-1zm7.9405 0.3421 1.8437 0.7813-0.3437 0.9062c6e-4 0.021 6e-4 0.042 0 0.062-0.01 0.011-0.021 0.021-0.031 0.031-0.018 0.043-0.039 0.085-0.062 0.125-0.01 0.021-0.02 0.042-0.031 0.062-0.01 0.011-0.021 0.021-0.031 0.031-0.02 0.022-0.041 0.043-0.062 0.062-0.01 0.021-0.02 0.042-0.031 0.062-0.01 2e-4 -0.021 2e-4 -0.031 0 2e-4 0.01 2e-4 0.021 0 0.031-0.02 0.011-0.041 0.022-0.062 0.031-0.01 0.011-0.021 0.021-0.031 0.031-0.01 0.011-0.021 0.021-0.031 0.031-0.01 2e-4 -0.021 2e-4 -0.031 0-0.021 0.011-0.041 0.022-0.062 0.031-0.088 0.045-0.1836 0.077-0.2813 0.094-0.061 0.016-0.1242 0.027-0.1875 0.031-0.021 6e-4 -0.042 6e-4 -0.062 0-0.021-0.01-0.042-0.02-0.062-0.031-0.01 2e-4 -0.021 2e-4 -0.031 0-0.021 7e-4 -0.042 7e-4 -0.062 0-0.011-0.01-0.021-0.021-0.031-0.031-0.021 6e-4 -0.042 6e-4 -0.062 0-0.011-0.01-0.021-0.021-0.031-0.031-0.021 7e-4 -0.042 7e-4 -0.062 0-0.011-0.01-0.021-0.021-0.031-0.031-0.021-0.01-0.042-0.02-0.062-0.031-0.011-0.01-0.021-0.021-0.031-0.031-0.01 2e-4 -0.021 2e-4 -0.031 0-0.045-0.038-0.087-0.08-0.125-0.125-0.011-0.01-0.021-0.021-0.031-0.031-0.011-0.01-0.021-0.021-0.031-0.031-0.023-0.03-0.043-0.061-0.062-0.094-0.011-0.02-0.021-0.041-0.031-0.062-0.011-0.02-0.022-0.041-0.031-0.062-0.024-0.04-0.045-0.082-0.062-0.125-0.011-0.02-0.021-0.041-0.031-0.062v-0.125c-0.01-0.073-0.01-0.1461 0-0.2187-2e-4 -0.01-2e-4 -0.021 0-0.031 0.01-0.053 0.017-0.1051 0.031-0.1562-1e-4 -0.01-1e-4 -0.021 0-0.031 0.01-0.021 0.02-0.042 0.031-0.062z" style="fill-opacity:.5;fill:currentColor" class="ColorScheme-Background"/>
</svg>

<?xml version="1.0" encoding="UTF-8" standalone="no"?>
<!-- Created with Inkscape (http://www.inkscape.org/) -->

<svg
   xmlns:dc="http://purl.org/dc/elements/1.1/"
   xmlns:cc="http://creativecommons.org/ns#"
   xmlns:rdf="http://www.w3.org/1999/02/22-rdf-syntax-ns#"
   xmlns:svg="http://www.w3.org/2000/svg"
   xmlns="http://www.w3.org/2000/svg"
   xmlns:sodipodi="http://sodipodi.sourceforge.net/DTD/sodipodi-0.dtd"
   xmlns:inkscape="http://www.inkscape.org/namespaces/inkscape"
   width="16"
   height="16"
   id="svg27665"
   version="1.1"
   inkscape:version="0.48.4 r9939"
   sodipodi:docname="menu-editor.svg">
  <defs
     id="defs27667" />
  <sodipodi:namedview
     id="base"
     pagecolor="#ffffff"
     bordercolor="#666666"
     borderopacity="1.0"
     inkscape:pageopacity="0.0"
     inkscape:pageshadow="2"
     inkscape:zoom="32"
     inkscape:cx="9.3288571"
     inkscape:cy="8.9712096"
     inkscape:document-units="px"
     inkscape:current-layer="layer1"
     showgrid="true"
     inkscape:window-width="1920"
     inkscape:window-height="1017"
     inkscape:window-x="-5"
     inkscape:window-y="26"
     inkscape:window-maximized="1"
     inkscape:snap-bbox="true"
     inkscape:bbox-paths="true"
     inkscape:bbox-nodes="true"
     inkscape:snap-bbox-edge-midpoints="true"
     inkscape:snap-bbox-midpoints="true"
     inkscape:object-paths="true"
     inkscape:snap-intersection-paths="true"
     inkscape:object-nodes="true"
     inkscape:snap-smooth-nodes="true"
     inkscape:snap-midpoints="true"
     inkscape:snap-object-midpoints="true"
     inkscape:snap-center="true"
     inkscape:snap-global="false"
     showguides="false"
     inkscape:guide-bbox="true"
     fit-margin-top="0"
     fit-margin-left="0"
     fit-margin-right="0"
     fit-margin-bottom="0"
     inkscape:showpageshadow="false">
    <sodipodi:guide
       orientation="0,1"
       position="599.99999,299.99993"
       id="guide3572" />
    <sodipodi:guide
       orientation="1,0"
       position="294.41949,12.121716"
       id="guide3574" />
    <sodipodi:guide
       orientation="0,1"
       position="456.04389,599.99992"
       id="guide3576" />
    <sodipodi:guide
       orientation="0,1"
       position="-2.8882813e-06,-8.4406273e-05"
       id="guide3578" />
    <sodipodi:guide
       orientation="1,0"
       position="-2.8882813e-06,157.58366"
       id="guide3580" />
    <sodipodi:guide
       orientation="1,0"
       position="599.99999,121.21821"
       id="guide3582" />
    <sodipodi:guide
       orientation="0,1"
       position="599.99999,-714.34359"
       id="guide5928" />
    <sodipodi:guide
       orientation="0,1"
       position="599.99999,-414.34359"
       id="guide5930" />
    <sodipodi:guide
       orientation="0,1"
       position="599.99999,-1014.3435"
       id="guide5932" />
    <sodipodi:guide
       orientation="0,1"
       position="451.57029,524.99606"
       id="guide5294" />
    <sodipodi:guide
       orientation="0,1"
       position="451.57029,75.013516"
       id="guide5296" />
    <sodipodi:guide
       orientation="0,1"
       position="496.01499,-931.36409"
       id="guide5413" />
    <sodipodi:guide
       orientation="0,1"
       position="457.34859,-489.34389"
       id="guide5415" />
    <inkscape:grid
       type="xygrid"
       id="grid3070"
       empspacing="5"
       visible="true"
       enabled="true"
       snapvisiblegridlinesonly="true"
       originx="4.3243213e-05px"
       originy="-2.6947047e-05px" />
  </sodipodi:namedview>
  <metadata
     id="metadata27670">
    <rdf:RDF>
      <cc:Work
         rdf:about="">
        <dc:format>image/svg+xml</dc:format>
        <dc:type
           rdf:resource="http://purl.org/dc/dcmitype/StillImage" />
        <dc:title />
      </cc:Work>
    </rdf:RDF>
  </metadata>
  <g
     inkscape:label="Camada 1"
     inkscape:groupmode="layer"
     id="layer1"
     transform="translate(3364.4171,-2100.7186)">
    <path
       style="font-size:medium;font-style:normal;font-variant:normal;font-weight:normal;font-stretch:normal;text-indent:0;text-align:start;text-decoration:none;line-height:normal;letter-spacing:normal;word-spacing:normal;text-transform:none;direction:ltr;block-progression:tb;writing-mode:lr-tb;text-anchor:start;baseline-shift:baseline;color:#000000;fill:#27303a;fill-opacity:0.753280819999999968;fill-rule:nonzero;stroke:none;stroke-width:2;marker:none;visibility:visible;display:inline;overflow:visible;enable-background:accumulate;font-family:Sans;-inkscape-font-specification:Sans"
       d="M 3,1 C 2.446,1 2,1.446 2,2 2,2.554 2.446,3 3,3 L 9.25,3 11.46875,3 12.125,1.28125 C 12.159364,1.1844766 12.201196,1.0903557 12.25,1 z m 10.75,0 c -0.06555,0.024573 -0.128511,0.056053 -0.1875,0.09375 C 13.53011,1.1128 13.49879,1.133677 13.46875,1.15625 13.41396,1.182662 13.36159,1.214085 13.3125,1.25 13.29076,1.269899 13.2699,1.290759 13.25,1.3125 c -1.63e-4,0.010416 -1.63e-4,0.020834 0,0.03125 -0.02119,0.00968 -0.04204,0.02011 -0.0625,0.03125 -1.63e-4,0.010416 -1.63e-4,0.020834 0,0.03125 -0.01114,0.020461 -0.02155,0.041311 -0.03125,0.0625 -1.63e-4,0.010416 -1.63e-4,0.020834 0,0.03125 -0.02174,0.019899 -0.0426,0.040759 -0.0625,0.0625 C 13.0818,1.59321 13.0714,1.624511 13.0625,1.65625 l -0.4375,1.1875 1.84375,0.75 L 14.6875,3 14.9375,2.34375 C 14.98198,2.2242614 15.0033,2.0962065 15,1.96875 15.000163,1.958334 15.000163,1.947916 15,1.9375 15.0015,1.906273 15.0015,1.874977 15,1.84375 14.98293,1.7460437 14.95122,1.650908 14.90625,1.5625 14.87984,1.50771 14.84841,1.455338 14.8125,1.40625 14.76886,1.3372638 14.715307,1.2751072 14.65625,1.21875 14.639263,1.2035213 14.611737,1.2015331 14.59375,1.1875 14.57385,1.165759 14.55299,1.144899 14.53125,1.125 c -0.0092,-0.00359 -0.02193,0.00331 -0.03125,0 C 14.47954,1.11386 14.45869,1.103435 14.4375,1.09375 14.40746,1.071177 14.37614,1.0503 14.34375,1.03125 14.28243,1.014916 14.21955,1.00444 14.15625,1 14.12502,0.998535 14.09373,0.998535 14.0625,1 13.989875,0.99201 13.91638,0.99201 13.84375,1 13.82292,0.99934892 13.80208,0.99934892 13.78125,1 13.77083,0.99983725 13.76042,0.99983725 13.75,1 z M 12.25,3.78125 12.15625,4 11.96875,4.5 11.75,5.03125 11.40625,6 11,7 10.71875,7.75 10.25,9 l -0.40625,1 -0.375,1 -0.0625,0.1875 -0.09375,0.21875 1.84375,0.75 L 11.21875,12 12,10 12.375,9 13.125,7.03125 13.15625,7 l 0.375,-1 0.5625,-1.46875 z M 3,7 C 2.446,7 2,7.446 2,8 2,8.554 2.446,9 3,9 L 7,9 9.15625,9 9.34375,8.5 9.9375,7 7.75,7 z M 13.9375,7.65625 13.5,8.84375 C 13.791991,8.669517 14,8.3660987 14,8 14,7.8730417 13.981314,7.7657197 13.9375,7.65625 z m -5,4.6875 -0.125,0.375 L 8.6875,13 8.5625,13.34375 c -0.01114,0.02046 -0.02157,0.04131 -0.03125,0.0625 -1.627e-4,0.01042 -1.627e-4,0.02083 0,0.03125 -0.014548,0.05114 -0.02501,0.10345 -0.03125,0.15625 -1.627e-4,0.01042 -1.627e-4,0.02083 0,0.03125 -0.00799,0.07262 -0.00799,0.14613 0,0.21875 -0.00261,0.04161 -0.00261,0.08339 0,0.125 0.00968,0.02119 0.02011,0.04204 0.03125,0.0625 0.017886,0.04306 0.038787,0.08486 0.0625,0.125 0.00968,0.02119 0.02011,0.04204 0.03125,0.0625 0.00968,0.02119 0.02011,0.04204 0.03125,0.0625 0.01905,0.03239 0.039927,0.06371 0.0625,0.09375 0.010185,0.01065 0.020605,0.02107 0.03125,0.03125 0.010185,0.01065 0.020605,0.02107 0.03125,0.03125 0.037871,0.04525 0.079755,0.08713 0.125,0.125 0.010416,1.62e-4 0.020834,1.62e-4 0.03125,0 0.010185,0.01065 0.020605,0.02107 0.03125,0.03125 0.020461,0.01114 0.041311,0.02155 0.0625,0.03125 0.010185,0.01065 0.020605,0.02107 0.03125,0.03125 0.020827,6.51e-4 0.041673,6.51e-4 0.0625,0 0.010185,0.01065 0.020605,0.02107 0.03125,0.03125 0.020827,6.51e-4 0.041673,6.51e-4 0.0625,0 0.010185,0.01065 0.020605,0.02107 0.03125,0.03125 0.020827,6.51e-4 0.041673,6.51e-4 0.0625,0 0.010416,1.62e-4 0.020834,1.62e-4 0.03125,0 0.020461,0.01114 0.041311,0.02155 0.0625,0.03125 0.020827,6.51e-4 0.041673,6.51e-4 0.0625,0 0.063303,-0.0044 0.12618,-0.01492 0.1875,-0.03125 C 9.7539563,14.70168 9.849092,14.66997 9.9375,14.625 9.958689,14.61532 9.979539,14.60489 10,14.59375 c 0.01042,1.62e-4 0.02083,1.62e-4 0.03125,0 0.01065,-0.01018 0.02107,-0.0206 0.03125,-0.03125 0.01065,-0.01018 0.02107,-0.0206 0.03125,-0.03125 0.02119,-0.0097 0.04204,-0.02011 0.0625,-0.03125 1.63e-4,-0.01042 1.63e-4,-0.02083 0,-0.03125 0.01042,1.62e-4 0.02083,1.62e-4 0.03125,0 0.01114,-0.02046 0.02155,-0.04131 0.03125,-0.0625 0.02174,-0.0199 0.0426,-0.04076 0.0625,-0.0625 0.01065,-0.01018 0.02107,-0.0206 0.03125,-0.03125 0.01114,-0.02046 0.02155,-0.04131 0.03125,-0.0625 0.02371,-0.04014 0.04462,-0.08194 0.0625,-0.125 0.01065,-0.01018 0.02107,-0.0206 0.03125,-0.03125 6.51e-4,-0.02083 6.51e-4,-0.04167 0,-0.0625 L 10.78125,13.125 8.96875,12.34375 z M 3,13 c -0.554,0 -1,0.446 -1,1 0,0.554 0.446,1 1,1 l 2,0 1.9375,0 0.78125,0 C 7.4501212,14.563498 7.3251202,14.032945 7.4375,13.53125 c 0.029159,-0.128716 0.071098,-0.254533 0.125,-0.375 L 7.625,13 5.5,13 z m 8.875,0 -0.53125,1.40625 c -0.04843,0.216186 -0.12995,0.410577 -0.25,0.59375 l 0.03125,0 0.875,0 1,0 c 0.554,0 1,-0.446 1,-1 0,-0.554 -0.446,-1 -1,-1 z"
       transform="translate(-3364.4171,2100.7186)"
       id="path3799"
       inkscape:connector-curvature="0"
       sodipodi:nodetypes="sssccccscccccccccccccccccccccccccccccccccccccccccccccccccccccssscccccsccsccccccccccccccccccccccccccccccccccccccccccccccccccssscccccccscccccsssc" />
    <path
       sodipodi:nodetypes="ccccscccccccccccccccccccccccccccccccccccccccccccccccccccccccccccccccccccccccccccccccccccccccccccccccccccccccccccccccccccccccccccccccccccc"
       inkscape:connector-curvature="0"
       id="path3056"
       d="m -3350.5109,2100.6874 c -0.7805,0.038 -1.5134,0.5782 -1.7812,1.3125 l -4.5595,11.8733 c -0.054,0.1205 -0.096,0.2463 -0.125,0.375 -0.2291,1.0227 0.493,2.1616 1.5156,2.3907 1.0227,0.229 2.1616,-0.493 2.3906,-1.5157 l 0.5283,-1.4046 3.125,0 0,-1 -2.7188,0 0.75,-2 1.9688,0 0,-1 -1.5625,0 0.75,-2 0.8125,0 0,-1 -0.4063,0 1.25,-3.2812 c 0.5006,-1.2345 -0.6065,-2.8059 -1.9375,-2.75 z m -0.1562,1.0312 c 0.01,-2e-4 0.021,-2e-4 0.031,0 0.021,-7e-4 0.042,-7e-4 0.062,0 0.073,-0.01 0.1462,-0.01 0.2188,0 0.031,-0 0.062,-0 0.094,0 0.063,0 0.1262,0.015 0.1875,0.031 0.032,0.019 0.064,0.04 0.094,0.062 0.032,0.01 0.063,0.019 0.094,0.031 0.056,0.036 0.1086,0.078 0.1563,0.125 0.022,0.02 0.043,0.041 0.062,0.062 0.023,0.03 0.043,0.061 0.062,0.094 0.036,0.049 0.067,0.1014 0.094,0.1562 0.045,0.088 0.077,0.1835 0.094,0.2813 0,0.031 0,0.062 0,0.094 2e-4,0.01 2e-4,0.021 0,0.031 0,0.1274 -0.018,0.2555 -0.062,0.375 l -0.25,0.6562 -0.2188,0.5938 -1.8437,-0.75 0.4375,-1.1875 c 0.01,-0.032 0.019,-0.063 0.031,-0.094 0.02,-0.022 0.041,-0.043 0.062,-0.062 -10e-5,-0.01 -10e-5,-0.021 0,-0.031 0.01,-0.021 0.02,-0.042 0.031,-0.062 -2e-4,-0.01 -2e-4,-0.021 0,-0.031 0.021,-0.011 0.041,-0.022 0.062,-0.031 -2e-4,-0.01 -2e-4,-0.021 0,-0.031 0.02,-0.022 0.041,-0.043 0.062,-0.062 0.049,-0.036 0.1015,-0.067 0.1562,-0.094 0.03,-0.023 0.061,-0.043 0.094,-0.062 0.059,-0.038 0.1219,-0.069 0.1875,-0.094 z m -12.75,2 0,1 7.875,0 0.375,-1 z m 11.25,0.7813 1.8437,0.75 -0.5625,1.4687 -0.375,1 -0.7812,2 -0.375,1 -0.7813,2 0.128,-0.3141 -0.125,0.3125 -0.062,0.1562 -1.8437,-0.75 0.1532,-0.4046 0.375,-1 0.4063,-1 0.4687,-1.25 0.2813,-0.75 0.4062,-1 0.5625,-1.5 0.1875,-0.5 z m -11.25,2.2187 0,1 6.75,0 0.375,-1 z m 0,3 0,1 5.625,0 0.375,-1 z m 0,3 0,1 4.5,0 0.375,-1 z m 7.9405,0.3421 1.8437,0.7813 -0.3437,0.9062 c 6e-4,0.021 6e-4,0.042 0,0.062 -0.01,0.011 -0.021,0.021 -0.031,0.031 -0.018,0.043 -0.039,0.085 -0.062,0.125 -0.01,0.021 -0.02,0.042 -0.031,0.062 -0.01,0.011 -0.021,0.021 -0.031,0.031 -0.02,0.022 -0.041,0.043 -0.062,0.062 -0.01,0.021 -0.02,0.042 -0.031,0.062 -0.01,2e-4 -0.021,2e-4 -0.031,0 2e-4,0.01 2e-4,0.021 0,0.031 -0.02,0.011 -0.041,0.022 -0.062,0.031 -0.01,0.011 -0.021,0.021 -0.031,0.031 -0.01,0.011 -0.021,0.021 -0.031,0.031 -0.01,2e-4 -0.021,2e-4 -0.031,0 -0.021,0.011 -0.041,0.022 -0.062,0.031 -0.088,0.045 -0.1836,0.077 -0.2813,0.094 -0.061,0.016 -0.1242,0.027 -0.1875,0.031 -0.021,6e-4 -0.042,6e-4 -0.062,0 -0.021,-0.01 -0.042,-0.02 -0.062,-0.031 -0.01,2e-4 -0.021,2e-4 -0.031,0 -0.021,7e-4 -0.042,7e-4 -0.062,0 -0.011,-0.01 -0.021,-0.021 -0.031,-0.031 -0.021,6e-4 -0.042,6e-4 -0.062,0 -0.011,-0.01 -0.021,-0.021 -0.031,-0.031 -0.021,7e-4 -0.042,7e-4 -0.062,0 -0.011,-0.01 -0.021,-0.021 -0.031,-0.031 -0.021,-0.01 -0.042,-0.02 -0.062,-0.031 -0.011,-0.01 -0.021,-0.021 -0.031,-0.031 -0.01,2e-4 -0.021,2e-4 -0.031,0 -0.045,-0.038 -0.087,-0.08 -0.125,-0.125 -0.011,-0.01 -0.021,-0.021 -0.031,-0.031 -0.011,-0.01 -0.021,-0.021 -0.031,-0.031 -0.023,-0.03 -0.043,-0.061 -0.062,-0.094 -0.011,-0.02 -0.021,-0.041 -0.031,-0.062 -0.011,-0.02 -0.022,-0.041 -0.031,-0.062 -0.024,-0.04 -0.045,-0.082 -0.062,-0.125 -0.011,-0.02 -0.021,-0.041 -0.031,-0.062 -0,-0.042 -0,-0.083 0,-0.125 -0.01,-0.073 -0.01,-0.1461 0,-0.2187 -2e-4,-0.01 -2e-4,-0.021 0,-0.031 0.01,-0.053 0.017,-0.1051 0.031,-0.1562 -10e-5,-0.01 -10e-5,-0.021 0,-0.031 0.01,-0.021 0.02,-0.042 0.031,-0.062 z"
       style="font-size:medium;font-style:normal;font-variant:normal;font-weight:normal;font-stretch:normal;text-indent:0;text-align:start;text-decoration:none;line-height:normal;letter-spacing:normal;word-spacing:normal;text-transform:none;direction:ltr;block-progression:tb;writing-mode:lr-tb;text-anchor:start;baseline-shift:baseline;color:#000000;fill:#f1f3f5;fill-opacity:0.90288714000000003;fill-rule:nonzero;stroke:none;stroke-width:2;marker:none;visibility:visible;display:inline;overflow:visible;enable-background:accumulate;font-family:Sans;-inkscape-font-specification:Sans" />
    <g
       id="layer1-3"
       inkscape:label="Camada 1"
       transform="translate(-15.59375,-1.75)" />
  </g>
</svg>
